build/service/ErrorTriangleOutline.svg

<svg xmlns="http://www.w3.org/2000/svg" fill="none" viewBox="0 0 24 24" focusable="false"><path d="M0 0H24V24H0z"/><path fill="#74767B" fill-rule="evenodd" d="M18.8382 21L5.16213 21C2.86036 21 1.41606 18.5148 2.55551 16.5149L9.39355 4.51283C10.5443 2.49296 13.456 2.49296 14.6068 4.51283L21.4448 16.5149C22.5843 18.5148 21.14 21 18.8382 21ZM18.8382 19.7L5.16213 19.7C3.8578 19.7 3.03936 18.2917 3.68505 17.1584L10.5231 5.15637C11.1752 4.01178 12.8251 4.01178 13.4773 5.15637L20.3153 17.1584C20.961 18.2917 20.1426 19.7 18.8382 19.7ZM12.0001 14.7734C12.3591 14.7734 12.6501 14.4823 12.6501 14.1234L12.6501 8.97715C12.6501 8.61816 12.3591 8.32715 12.0001 8.32715C11.6411 8.32715 11.3501 8.61816 11.3501 8.97715L11.3501 14.1234C11.3501 14.4823 11.6411 14.7734 12.0001 14.7734ZM12.8499 16.9789C12.8499 17.4483 12.4693 17.8289 11.9999 17.8289C11.5305 17.8289 11.1499 17.4483 11.1499 16.9789C11.1499 16.5095 11.5305 16.1289 11.9999 16.1289C12.4693 16.1289 12.8499 16.5095 12.8499 16.9789Z"/></svg>

<svg xmlns="http://www.w3.org/2000/svg" fill="none" viewBox="0 0 24 24" focusable="false"><path fill="#74767B" fill-rule="evenodd" d="M18.83 21H5.16c-2.3 0-3.75-2.49-2.61-4.49l6.84-12c1.15-2.02 4.06-2.02 5.21 0l6.84 12c1.14 2-.3 4.49-2.61 4.49m0-1.3H5.16c-1.31 0-2.13-1.41-1.48-2.55l6.84-12c.65-1.14 2.3-1.14 2.95 0l6.84 12c.65 1.14-.17 2.55-1.48 2.55M12 14.77c.35 0 .64-.29.64-.65V8.97c0-.36-.29-.65-.64-.65-.36 0-.65.29-.65.65v5.15c0 .36.29.65.65.65m.85 2.2a.856.856 0 0 1-1.71 0 .856.856 0 0 1 1.71 0"/></svg>
